X: 10101
M: C
L: 1/8
K: Bb
[2 Ged>c dB B |] f |\
d>fBf dfbf |
(d/e/f) Bd cF-Fe |\
dfBf dfbd | Fed>c dBBf |\
dfBf dfbf | (d/e/f) B>d cF-Ff |\
gecg fdBf | ecFe dB B |]


